assets/icons/qvision/home_repair_service.svg

<svg xmlns="http://www.w3.org/2000/svg" enable-background="new 0 0 24 24" height="24" viewBox="0 0 24 24" width="24"><g><rect fill="none" height="24" width="24"/></g><g><g><polygon points="18,16 16,16 16,15 8,15 8,16 6,16 6,15 2,15 2,20 22,20 22,15 18,15"/><path d="M20,8h-3V6c0-1.1-0.9-2-2-2H9C7.9,4,7,4.9,7,6v2H4c-1.1,0-2,0.9-2,2v4h4v-2h2v2h8v-2h2v2h4v-4C22,8.9,21.1,8,20,8z M15,8 H9V6h6V8z"/></g></g></svg>

<svg width="24" height="24" viewBox="0 0 24 24" fill="none" xmlns="http://www.w3.org/2000/svg">
<g clip-path="url(#clip0_147_5322)">
<path d="M18 16H16V15H8V16H6V15H2V20H22V15H18V16Z" fill="#323232"/>
<path d="M20 8H17V6C17 4.9 16.1 4 15 4H9C7.9 4 7 4.9 7 6V8H4C2.9 8 2 8.9 2 10V14H6V12H8V14H16V12H18V14H22V10C22 8.9 21.1 8 20 8ZM15 8H9V6H15V8Z" fill="#323232"/>
</g>
<defs>
<clipPath id="clip0_147_5322">
<rect width="24" height="24" fill="white"/>
</clipPath>
</defs>
</svg>
